svg/alpha_r_circle_outline.svg

<svg xmlns="http://www.w3.org/2000/svg" viewBox="0 0 24 24"><path d="M9 7h4a2 2 0 0 1 2 2v2c0 .84-.5 1.55-1.24 1.85L15 17h-2l-1.2-4H11v4H9zm2 2v2h2V9zm1-7a10 10 0 0 1 10 10 10 10 0 0 1-10 10A10 10 0 0 1 2 12 10 10 0 0 1 12 2m0 2a8 8 0 0 0-8 8c0 4.41 3.58 8 8 8a8 8 0 0 0 8-8 8 8 0 0 0-8-8"/></svg>

<?xml version="1.0" encoding="UTF-8"?><!DOCTYPE svg PUBLIC "-//W3C//DTD SVG 1.1//EN" "http://www.w3.org/Graphics/SVG/1.1/DTD/svg11.dtd"><svg xmlns="http://www.w3.org/2000/svg" xmlns:xlink="http://www.w3.org/1999/xlink" version="1.1" id="mdi-alpha-r-circle-outline" width="24" height="24" viewBox="0 0 24 24"><path d="M9,7H13A2,2 0 0,1 15,9V11C15,11.84 14.5,12.55 13.76,12.85L15,17H13L11.8,13H11V17H9V7M11,9V11H13V9H11M12,2A10,10 0 0,1 22,12A10,10 0 0,1 12,22A10,10 0 0,1 2,12A10,10 0 0,1 12,2M12,4A8,8 0 0,0 4,12C4,16.41 7.58,20 12,20A8,8 0 0,0 20,12A8,8 0 0,0 12,4Z" /></svg>
